!!!SOCIAL_FUNCTION:	chief songs
!!!PDT:	1918

Specific Region: Dakotas, Minnesota, Montana, Nebraska
!!!REG: Dakotas and Montana
!!!LING_GROUP: Siouan
!!!LANG: Tone
!!!OTL@ENG: Song in Honor of Red Fish
!!!ONM: No. 192
**kern
*Imale
*clefG2
*k[b-e-a-d-]
*M2/4
*MM80
12a-
12a-
12a-
12a-
12a-
12a-
=2
12f
12f
12f
12f
12f
12f
=3
12a-
12a-
12a-
12f
12f
12f
=4
12f
12f
12e-
12c
12c
12c
=5
12B-
12B-
12B-
12B-
[12B-
12B-]
=6||
*M3/4
12B-
12B-
12B-
12B-
12G
12G
12G
[12G
12G]
=7||
*M2/4
12B-
12B-
12B-
12B-
[12G
12G]
=8
12G
12G
12G
12G
12G
12G
=9
2G
=10
2G
=11
12f
12f
12f
12f
12f
12f
=12
12f
12a-
12a-
12f
12f
12f
=13
12f
12e-
12e-
12c
12c
12c
=14
12c
12B-
12B-
12B-
12B-
12B-
=15||
*M3/4
12B-
12B-
12B-
12B-
12G
12G
12G
[12G
12G]
=16||
*M2/4
12B-
12B-
12B-
12B-
[12G
12G]
=17
12G
12G
12G
12G
12G
12G
=18
2G
=19
2G
==
*-
!!!CNT: Native American -- Sioux
!!!MRD: 1911/07//-1914///
!!!OCL: Frances Densmore
!!!YOR1: Teton Sioux Music, Bulletin 61,
!!!YOR2: Bureau of American Ethnology, Smithsonian Institution
!!!PPR: Government Printing Office
!!!PPP: Washington, D.C.
!!!PDT: 1918///
!!!ENC: Craig Stuart Sapp
!!!END: 2002/03/25/
!!!EEV: 2002/03/31/
!!!AGN: Chief Song
!!!MPN@@SIO: Hoghang'-luta
!!!MPN@ENG: Red Fish
!!!TXO: Teton Sioux
!!!MLC: Standing Rock Reservation, South Dakota, United States of America
!!!ARL: 45.9/-100.7#
!!!catalog: Catalogue No. 673
!!!PPG: 457
!!!EFL: 197/245
!!!VTS: 1087858286
